X:1
T:Title
%%score { ( 1 3 ) | ( 2 4 ) }
L:1/8
Q:1/4=100
M:6/8
K:F
V:1 treble nm="Grand Piano"
V:3 treble 
V:2 bass 
V:4 bass 
V:1
 .F2 F GFE | F2- [CF-] [A,F]2 C | A2 A BAG | A6 | AGF AGF | c6- | c2 z z3 | [Ec]6 | %8
w: German * * * *||||||||
 [Ac]2 [FA] [FA]B[Ac] | [Ac]3 z3 | [GB]2 [EG] [EG]A[CGB] | [GB]3 z3 | [Ac]2 [FA] [FA]B[Ac] | %13
w: |||||
[M:15/16] [Bd]3 [Bdf]3/2- [Bdf]3 |[M:3/4] [Ac]2 [FA][GB] [FA][EG] | %15
w: ||
[M:7/8] [A,F]-[A,F]-[A,F]- [A,F]3 z |] %16
w: |
V:2
 .A,2 A, B,A,G, | F,2 C, A,,2 C, | .[F,F]2 F, G,F,E, | .F3 z3 | [F,CF]B,A, CB,A, | .E3 G,3 | %6
 G,2 [G,E] [G,,G,]2 [G,,G,] | [C,G,]6 | F,2 F, z GF, | F,3 .C,3 | [C,C]2 [C,C] z FC, | C,3 .F,3 | %12
 F,2 F, z G[_E,F,] |[M:15/16] [D,F,]3 [B,,F,]3/2- [B,,F,]3 |[M:3/4] [C,F,]2 [C,F,] [C,C]2 [C,B,] | %15
[M:7/8] [F,,F,]-[F,,F,]-[F,,F,]- [F,,F,]3 z |] %16
V:3
 x6 | A,3 z3 | x6 | z2 C A,2 C | x6 | z DC EDC | E2 c [Fd][Ec][D=B] | x6 | x6 | C3- [CGB]3 | x6 | %11
 C3- [CFA]3 | x6 |[M:15/16] x15/2 |[M:3/4] x6 |[M:7/8] x7 |] %16
V:4
 x6 | x6 | x6 | F,2- [C,F,-] [A,,F,]2 C, | x6 | G,-[F,G,-][E,G,] z F,E, | x6 | x6 | z3 .F,3 | x6 | %10
 z3 .[C,C]3 | x6 | z3 .F,3 |[M:15/16] x15/2 |[M:3/4] x6 |[M:7/8] x7 |] %16

